X: 13175
T: First Of October, The
R: jig
M: 6/8
K: Dmajor
A,B,D EDD|EFA BAA|Bde dBA|d/G/Gd F2D|
FDD EDD|B,A,G, A,A,A,|A,B,D EDB,|1 DDD D2B,:|2 DDD D2a||
~b3 afe|~f3 edB|Bdd BAA|
[1 ^GAB A2 a|~b3 afe|eff edB|Bdd BAF|EFE DDD:|
[2 ^GAB A2B,|A,B,D EDD|EFA BAA|Bdd BAF|EFE D2||

